X:1
T:Etans assis aux rives aquatiques (Ps. CXXXVII)
T:Claude Goudimel (Psautier de 1580)
T:Etans assis aux rives aquatiques (Ps. CXXXVII)
T:Copyright © 
T:Copyright © 
T:Copyright © 
T:Copyright © 
T:Copyright © 
T:Copyright © 
T:Copyright © 
T:Copyright © 
T:Copyright © 
C:Claude Goudimel
C:(Psautier de 1580)
Z:Copyright ©
%%score [ 1 2 3 4 ]
L:1/8
M:2/2
K:C
V:1 treble nm="Soprano" snm="S."
V:2 treble nm="Alto" snm="A."
V:3 treble-8 transpose=-12 nm="Tenor" snm="T."
V:4 bass nm="Bass" snm="B."
V:1
 D4 F2 G2 | A4 A4 | A2 G2 A2 B2 | c4 A4 |[M:3/2] z4 c4 A2 G2 |[M:2/2] F4 G4 | G2 A2 G2 F2 | %7
w: E- tans as-|sis aux|ri- ves a- qua-|ti- ques|de Ba- by-|lon, plo-|rions mé- lan- co-|
[M:3/2] E4 D4 z2 D2 |[M:2/2] F4 A4 | G4 F4 | E2 D2 E2 E2 | D4 z4 | A4 A2 G2 | F4 A4 | c2 c2 B2 B2 | %15
w: li- ques, nous|sou- ve-|nant du|pa- ys de Si-|on:|Et au mi-|lieu de|l'ha- bi- ta- ti-|
 A4 z4 | F4 E2 D2 | A4 c4 | B2 A2 G2 A2 |[M:3/2] F4 E4 z4 |[M:2/2] D4 F2 G2 | A4 G4 | G2 A2 G2 F2 | %23
w: on,|où de re-|grets tant|de pleurs é- pan-|di- mes,|aux sau- les|verts nos|har- pes nous pen-|
 E4 D4 || D4 F2 G2 | A4 A4 | A2 G2 A2 B2 | c4 A4 |[M:3/2] z4 c4 A2 G2 |[M:2/2] F4 G4 | %30
w: dî- mes.|2.Lors ceux qui|là cap-|tifs nous em- me-|nè- rent|de les son-|ner fort|
 G2 A2 G2 F2 |[M:3/2] E4 D4 z2 D2 |[M:2/2] F4 A4 | G4 F4 | E2 D2 E2 E2 | D4 z4 | A4 A2 G2 | F4 A4 | %38
w: nous im- por- tu-|nè- rent, et|de Si-|on les|chan- sons ré- ci-|ter.|Las, dî- mes|nous, qui|
 c2 c2 B2 B2 | A4 z4 | F4 E2 D2 | A4 c4 | B2 A2 G2 A2 |[M:3/2] F4 E4 z4 |[M:2/2] D4 F2 G2 | A4 G4 | %46
w: pour- rait in- ci-|ter|nos tris- tes|coeurs à|chan- ter la lou-|an- ge|de no- tre|Dieu sur|
 G2 A2 G2 F2 | E4 D4 || D4 F2 G2 | A4 A4 | A2 G2 A2 B2 | c4 A4 |[M:3/2] z4 c4 A2 G2 | %53
w: u- ne terre é-|tran- ge.|3.Or tou- te-|fois puisse|oub- li- er ma|dex- tre|L'art de har-|
[M:2/2] F4 G4 | G2 A2 G2 F2 |[M:3/2] E4 D4 z4 |[M:2/2] z8 | z8 | z8 | z8 | A4 A2 G2 | F4 A4 | %62
w: per, a-|vant qu'on te voie|ê- tre,|||||Ma lan- gue|puisse à|
 c2 c2 B2 B2 | A4 z4 | F4 E2 D2 | A4 c4 | B2 A2 G2 A2 |[M:3/2] F4 E4 z4 |[M:2/2] D4 F2 G2 | A4 G4 | %70
w: mon pa- lais te-|nir|si je t'ou-|blie et|si ja- mais j'ai|joi- e|tant que pre-|mier ta|
 G2 A2 G2 F2 | E4 D4 || D4 F2 G2 | A4 A4 | A2 G2 A2 B2 | c4 A4 |[M:3/2] z4 c4 A2 G2 | %77
w: dé- li- vran- ce|j'oy- e.|4.Mais donc Sei-|gneur en|ta mé- moire im-|pri- me|les fils d'E-|
[M:2/2] F4 G4 | G2 A2 G2 F2 |[M:3/2] E4 D4 z4 |[M:2/2] z4 z4 | z4 z4 | z8 | z4 z4 | A4 A2 G2 | %85
w: dom, qui|sur Jé- ro- so-|ly- me|||||Sou- vien- ne-|
 F4 A4 | c2 c2 B2 B2 | A4 z4 | F4 E2 D2 | A4 c4 | B2 A2 G2 A2 |[M:3/2] F4 E4 z4 |[M:2/2] D4 F2 G2 | %93
w: toi qu'un|cha- cun d'eux di-|sait|A sac, à|sac qu'el-|le soit em- bra-|sé- e|et jus- qu'au|
 A4 G4 | G2 A2 G2 F2 | E4 D4 || D4 F2 G2 | A4 A4 | A2 G2 A2 B2 | c4 A4 |[M:3/2] z4 c4 A2 G2 | %101
w: pied du|fon- de- ment ra-|sé- e.|5.Aus- si se-|ra Ba-|by- lon mise en|cen- dre|et très heu-|
[M:2/2] F4 G4 | G2 A2 G2 F2 |[M:3/2] E4 D4 z4 |[M:2/2] z4 z4 | z4 z4 | z8 | z4 z4 | A4 A2 G2 | %109
w: reux qui|te fau- ra bien|ren- dre|||||Heu- reux ce-|
 F4 A4 | c2 c2 B2 B2 | A4 z4 | F4 E2 D2 | A4 c4 | B2 A2 G2 A2 |[M:3/2] F4 E4 z4 |[M:2/2] D4 F2 G2 | %117
w: lui qui|vien- dra at- ta-|cher|les cieux en-|fants de|ta ma- melle im-|pu- re|pour les coif-|
 A4 G4 | G2 A2 G2 F2 | E4 D4 |] %120
w: fer con-|tre la pier- re|du- re.|
V:2
 z8 | z8 | z8 | z8 |[M:3/2] z12 |[M:2/2] z8 | z8 |[M:3/2] z12 |[M:2/2] z8 | z8 | z8 | z8 | z8 | %13
w: |||||||||||||
 z8 | z8 | z8 | z8 | z8 | z8 |[M:3/2] z12 |[M:2/2] z8 | z8 | z8 | z8 || z8 | z8 | z8 | z8 | %28
w: |||||||||||||||
[M:3/2] z12 |[M:2/2] z8 | z8 |[M:3/2] z12 |[M:2/2] z8 | z8 | z8 | z8 | z8 | z8 | z8 | z8 | z8 | %41
w: |||||||||||||
 z8 | z8 |[M:3/2] z12 |[M:2/2] z8 | z8 | z8 | z8 || z4 D4 | ^C2 C2 D4 | D4 D2 D2 | E2 E2 F4- | %52
w: |||||||Or|tou- te- fois|puisse ou- bli-|er ma dex-|
[M:3/2] F4 E2 E2 F2 E2 |[M:2/2] A,2 A,2 B,2 C2 | B,2 A,2 E2 D2- |[M:3/2] D^C/B,/ C2 D4 z2 D2 | %56
w: * tre l'art de har-|per, a- vant qu'on|te voie ê- *|* * * * tre, Jé-|
[M:2/2] F4 A4 | G4 F4 | E2 D2 E2 E2 | D4 z4 | F4 E2 E2 | C2 C2 F2 F2 | E2 E2 D4 | z2 F4 E2 | %64
w: ru- sa-|lem, hors|de mon sou- ve-|nir|Ma lan- gue|puisse à mon pa-|lais te- nir|si je|
 D4 C2 A,2 | E2 F2 EDEF | G2 E4 C2- |[M:3/2] CB,/A,/ B,2 C4 z4 |[M:2/2] A,4 D2 D2 | C2 A,2 B,2 C2 | %70
w: t'ou- blie et|si ja- mais _ _ _|_ j'ai joi-|* * * * e|tant que pre-|mier ta dé- li-|
 E2 F2 E2 D2- | D^C/B,/ C2 D4 || z4 D4 | ^C2 C2 D4 | D4 D2 D2 | E2 E2 F4- |[M:3/2] F4 E2 E2 F2 E2 | %77
w: vran- * ce j'oy-|* * * * e.|Mais|donc Sei- gneur|en ta mé-|moire im- pri-|* me les fils d'E-|
[M:2/2] A,2 A,2 B,2 C2 | B,2 A,2 E2 D2- |[M:3/2] D^C/B,/ C2 D4 z2 D2 |[M:2/2] F4 A4 | G4 F4 | %82
w: dom qui sur Jé-|ro- so- * ly-|* * * * me croient|_ au|jour que|
 E2 D2 E2 E2 | D4 z4 | F4 E2 E2 | C2 C2 F2 F2 | E2 E2 D4 | z2 F4 E2 | D4 C2 A,2 | E2 F2 EDEF | %90
w: l'on la dé- trui-|sait.|Sou- vien- ne-|toi qu'un cha- cun|d'eux di- sait|A sac,|à sac qu'el-|le soit em- * * *|
 G2 E4 C2- |[M:3/2] CB,/A,/ B,2 C4 z4 |[M:2/2] A,4 D2 D2 | C2 A,2 B,2 C2 | E2 F2 E2 D2- | %95
w: * bra- sé-|* * * * e|et jus- qu'au|pied du fon- de-|ment ra- * sé-|
 D^C/B,/ C2 D4 || z4 D4 | ^C2 C2 D4 | D4 D2 D2 | E2 E2 F4- |[M:3/2] F4 E2 E2 F2 E2 | %101
w: * * * * e.|Aus-|si se- ra|Ba- by- lon|mise en cen-|* dre, et très heu-|
[M:2/2] A,2 A,2 B,2 C2 | B,2 A,2 E2 D2- |[M:3/2] D^C/B,/ C2 D4 z2 D2 |[M:2/2] F4 A4 | G4 F4 | %106
w: reux qui te fau-|ra bien ren- *|* * * * dre le|mal dont|trop de|
 E2 D2 E2 E2 | D4 z4 | F4 E2 E2 | C2 C2 F2 F2 | E2 E2 D4 | z2 F4 E2 | D4 C2 A,2 | E2 F2 EDEF | %114
w: près nous viens tou-|cher,|Heu- reux ce-|lui qui vien- dra|at- ta- cher|les cieux|en- fants de|ta ma- melle _ _ _|
 G2 E4 C2- |[M:3/2] CB,/A,/ B,2 C4 z4 |[M:2/2] A,4 D2 D2 | C2 A,2 B,2 C2 | E2 F2 E2 D2- | %119
w: _ im- pu-|* * * * re|pour les coif-|fer con- * tre|la pier- re du-|
 D^C/B,/ C2 D4 |] %120
w: * * * * re.|
V:3
 z8 | z8 | z8 | z8 |[M:3/2] z12 |[M:2/2] z8 | z8 |[M:3/2] z12 |[M:2/2] z8 | z8 | z8 | z8 | z8 | %13
w: |||||||||||||
 z8 | z8 | z8 | z8 | z8 | z8 |[M:3/2] z12 |[M:2/2] z8 | z8 | z8 | z8 || z8 | z8 | z8 | z8 | %28
w: |||||||||||||||
[M:3/2] z12 |[M:2/2] z8 | z8 |[M:3/2] z12 |[M:2/2] z8 | z8 | z8 | z8 | z8 | z8 | z8 | z8 | z8 | %41
w: |||||||||||||
 z8 | z8 |[M:3/2] z12 |[M:2/2] z8 | z8 | z8 | z8 || A4 A2 D2 | E2 E2 FEFG | A2 _B2 A2 G2 | %51
w: |||||||Or tou- te-|fois puisse ou- * * *|* bli- er ma|
 G4 F2 D2 |[M:3/2] A2 B2 cBAG F2 c2- |[M:2/2] c2 d2 d2 e2- | e2 c2 cBAG |[M:3/2] A4 A2 D2 F4 | %56
w: dex- tre l'art|de har- per _ _ _ _ a-|* vant qu'on te|_ voie ê- * * *|* tre, Jé- ru-|
[M:2/2] A4 D2 A2 | B2 c2 AGAB | c2 d3 ^c/B/ c2 | d2 A2 A2 G2 | F2 A2 c2 B2 | A2 A2 d2 A2 | %62
w: sa- lem, hors|de mon sou- * * *|* ve- * * *|nir. Ma lan- gue|puisse à mon pa-|lais te- nir, à|
 A2 c2 GABc | d2 d2 A4 | z2 A4 F2 | E2 A4 G2 | d2 c2 B2 A2 |[M:3/2] d4 G2 A2 G2 G2 | %68
w: mon pa- lais _ _ _|_ te- nir|si je|t'ou- blie et|si ja- mais j'ai|joi- e tant que pre-|
[M:2/2] F4 z2 D2 | E2 F2 G2 G2 | c3 c c2 A2 | A4 A4 || A4 A2 D2 | E2 E2 FEFG | A2 _B2 A2 G2 | %75
w: mier tant|que pre- mier ta|dé- li- vran- ce|j'oy- e.|Mais donc Sei-|gneur en ta _ _ _|_ mé- moire im-|
 G4 F2 D2 |[M:3/2] A2 B2 cBAG F2 c2- |[M:2/2] c2 d2 d2 e2- | e2 c2 cBAG |[M:3/2] A4 A2 D2 F4 | %80
w: pri- me les|fils d'E- dom _ _ _ _ qui|_ sur Jé- ro-|* so- ly- * * *|* me croient au|
[M:2/2] A4 D2 A2 | B2 c2 AGAB | c2 d2- d^c/B/ c2 | d2 A2 A2 G2 | F2 A2 c2 B2 | A2 A2 d2 A2 | %86
w: _ jour que|l'on la dé- * * *|* trui- * * * *|sait. Sou- vien- ne-|toi qu'un cha- cun|d'eux di- sait, qu'un|
 A2 c2 GABc | d2 d2 A4 | z2 A4 F2 | E2 A4 G2 | d2 c2 B2 A2 |[M:3/2] d4 G2 A2 G2 G2 | %92
w: cha- cun d'eux _ _ _|_ di- sait|A sac,|à sac qu'el-|le soit em- bra-|sé- e, et jus- qu'au|
[M:2/2] F4 z2 D2 | E2 F2 G2 G2 | c3 c c2 A2 | A4 A4 || A4 A2 D2 | E2 E2 FEFG | A2 _B2 A2 G2 | %99
w: pied, et|jus- qu'au pied du|fon- de- ment ra-|sé- e.|Aus- si se-|ra Ba- by- * * *|* lon mise en|
 G4 F2 D2 |[M:3/2] A2 B2 cBAG F2 c2- |[M:2/2] c2 d2 d2 e2- | e2 c2 cBAG |[M:3/2] A4 A2 D2 F4 | %104
w: cen- dre et|très heu- reux _ _ _ _ qui|_ te fau- ra|_ bien ren- * * *|* dre le mal|
[M:2/2] A4 D2 A2 | B2 c2 AGAB | c2 d2- d^c/B/ c2 | d2 A2 A2 G2 | F2 A2 c2 B2 | A2 A2 d2 A2 | %110
w: dont trop de|près nous viens _ _ _|_ tou- * * * *|cher, heu- reux ce-|lui qui vien- dra|at- ta- cher, qui|
 A2 c2 GABc | d2 d2 A4 | z2 A4 F2 | E2 A4 G2 | d2 c2 B2 A2 |[M:3/2] d4 G2 A2 G2 G2 | %116
w: vien- dra at- * * *|* ta- cher|les cieux|en- rants de|ta ma- melle im-|pu- re, pour les coifi-|
[M:2/2] F4 z2 D2 | E2 F2 G2 G2 | c3 c c2 A2 | A4 A4 |] %120
w: fer, pour|les coif- fer con-|tre la pier- re|du- re.|
V:4
 D,4 F,2 G,2 | A,4 A,4 | A,2 G,2 A,2 B,2 | C4 A,4 |[M:3/2] z4 C4 A,2 G,2 |[M:2/2] F,4 G,4 | %6
w: ||||||
 G,2 A,2 G,2 F,2 |[M:3/2] E,4 D,4 z2 D,2 |[M:2/2] F,4 A,4 | G,4 F,4 | E,2 D,2 E,2 E,2 | D,4 z4 | %12
w: ||||||
 A,4 A,2 G,2 | F,4 A,4 | C2 C2 B,2 B,2 | A,4 z4 | F,4 E,2 D,2 | A,4 C4 | B,2 A,2 G,2 A,2 | %19
w: |||||||
[M:3/2] F,4 E,4 z4 |[M:2/2] D,4 F,2 G,2 | A,4 G,4 | G,2 A,2 G,2 F,2 | E,4 D,4 || D,4 D,2 _B,,2 | %25
w: |||||Lors ceux qui|
 A,,2 A,,2 D,C,D,E, | F,2 G,2 D,2 G,,2 | C,4 F,,2 F,2 |[M:3/2] D,2 D,2 C,4 z2 C,2 | %29
w: là cap- tifs _ _ _|_ nous em- me-|nè- rent de|les son- ner, de|
[M:2/2] F,2 D,2 G,2 C,2 | E,2 F,2 C,2 D,2 |[M:3/2] A,,4 D,8 |[M:2/2] z2 D,2 F,2 F,2 | %33
w: les son- ner fort|nous im- por- tu-|nè- rent,|et de Si-|
 E,2 C,2 D,E,F,G, | A,2 F,2 G,2 A,2 | D,2 D,2 F,2 E,2 | D,E,F,G, A,2 E,2 | F,2 F,2 D,2 D,2 | %38
w: on les chan- * * *|* sons ré- ci-|ter. Las, dî- mes|nous _ _ _ _ qui|pour- rait in- ci-|
 A,,4 z4 | z2 D,4 C,2 | D,4 A,,2 D,2 | ^C,2 D,2 A,,2 =C,2 | G,,2 A,,2 E,2 F,2 | %43
w: ter|nos tris-|tes coeurs, nos|tris- tes coeurs à|chan- ter la lou-|
[M:3/2] D,4 C,2 A,,2 B,,2 C,2 |[M:2/2] D,2 D,4 B,,2 | C,2 D,2 G,,2 C,2- | C,2 F,,2 C,2 D,2 | %47
w: an- ge de no- tre|Dieu, de no-|tre Dieu sur u-|* ne terre é-|
 A,,4 D,4 || D,4 D,2 _B,,2 | A,,2 A,,2 D,C,D,E, | F,2 G,2 D,2 G,,2 | C,4 F,,2 F,2 | %52
w: tran- ge.|Or tou- te-|fois puisse ou- * * *|* bli- er ma|dex- tre l'art|
[M:3/2] D,2 D,2 C,4 z2 C,2 |[M:2/2] F,2 D,2 G,2 C,2 | E,2 F,2 C,2 D,2 |[M:3/2] A,,4 D,8 | %56
w: de har- per a-|vant qu'on te voie,|te voie ê- *|* tre,|
[M:2/2] z2 D,2 F,2 F,2 | E,2 C,2 D,E,F,G, | A,2 F,2 G,2 A,2 | D,2 D,2 F,2 E,2 | D,E,F,G, A,2 E,2 | %61
w: Jé- ru- sa-|lem, hors de _ mon *|sou- * * ve-|nir. Ma lan- gue|puisse _ _ _ _ à|
 F,2 F,2 D,2 D,2 | A,,4 z4 | z2 D,4 C,2 | D,4 A,,2 D,2 | ^C,2 D,2 A,,2 =C,2 | G,,2 A,,2 E,2 F,2 | %67
w: mon pa- lais te-|nir|si je|t'ou- blie et|si ja- mais, et|si ja- mais j'ai|
[M:3/2] D,4 C,2 A,,2 B,,2 C,2 |[M:2/2] D,2 D,4 B,,2 | C,2 D,2 G,,2 C,2- | C,2 F,,2 C,2 D,2 | %71
w: joi- e tant que pre-|mier tant que|pre- mier ta dé-|* li- vran- ce|
 A,,4 D,4 || D,4 D,2 _B,,2 | A,,2 A,,2 D,C,D,E, | F,2 G,2 D,2 G,,2 | C,4 F,,2 F,2 | %76
w: j'oy- e.|Mais donc Sei-|gneur en ta _ _ _|_ mé- moire im-|pri- me les|
[M:3/2] D,2 D,2 C,4 z2 C,2 |[M:2/2] F,2 D,2 G,2 C,2 | E,2 F,2 C,2 D,2 |[M:3/2] A,,4 D,4- D,4 | %80
w: fils d'E- dom, les|fils d'E- dom qui|sur Jé- ro- so-|ly- me _|
[M:2/2] z2 D,2 F,2 F,2 | E,2 C,2 D,E,F,G, | A,2 F,2 G,2 A,2 | D,2 D,2 F,2 E,2 | D,E,F,G, A,2 E,2 | %85
w: croient * au|jour que l'on _ _ _|_ la dé- trui-|sait. Sou- vien- ne-|toi _ _ _ _ qu'un|
 F,2 F,2 D,2 D,2 | A,,4 z4 | z2 D,4 C,2 | D,4 A,,2 D,2 | ^C,2 D,2 A,,2 =C,2 | G,,2 A,,2 E,2 F,2 | %91
w: cha- cun d'eux di-|sait|A sac,|à sac, à|sac, à sac qu'el-|le soit em- bra-|
[M:3/2] D,4 C,2 A,,2 B,,2 C,2 |[M:2/2] D,2 D,4 B,,2 | C,2 D,2 G,,2 C,2- | C,2 F,,2 C,2 D,2 | %95
w: sé- e, et jus- qu'au|pied, et jus-|qu'au pied du fon-|* de- ment ra-|
 A,,4 D,4 || D,4 D,2 _B,,2 | A,,2 A,,2 D,C,D,E, | F,2 G,2 D,2 G,,2 | C,4 F,,2 F,2 | %100
w: sé- e.|Au- si se-|ra Ba- by- * * *|* lon mise en|cen- dre, et|
[M:3/2] D,2 D,2 C,4 z2 C,2 |[M:2/2] F,2 D,2 G,2 C,2 | E,2 F,2 C,2 D,2 |[M:3/2] A,,4 D,8 | %104
w: très heu- reux, et|très heu- reux qui|te fau- ra bien|ren- dre|
[M:2/2] z2 D,2 F,2 F,2 | E,2 C,2 D,E,F,G, | A,2 F,2 G,2 A,2 | D,2 D,2 F,2 E,2 | D,E,F,G, A,2 E,2 | %109
w: le mal dont|trop de près _ _ _|_ nous viens tou-|cher, heu- reux ce-|lui _ _ _ _ qui|
 F,2 F,2 D,2 D,2 | A,,4 z4 | z2 D,4 C,2 | D,4 A,,2 D,2 | ^C,2 D,2 A,,2 =C,2 | G,,2 A,,2 E,2 F,2 | %115
w: vien- dra at- ta-|cher|les cieux|en- fants de|te ma- mel- le,|ta ma- melle im-|
[M:3/2] D,4 C,2 A,,2 B,,2 C,2 |[M:2/2] D,2 D,4 B,,2 | C,2 D,2 G,,2 C,2- | C,2 F,,2 C,2 D,2 | %119
w: pu- re, pour les coif-|fer, les coif-|fer con- tre la|_ pier- re du-|
 A,,4 D,4 |] %120
w: * re.|

